svg/black/part.svg

<svg xmlns="http://www.w3.org/2000/svg" width="32" height="32" viewBox="0 0 32 32">
  <path fill-rule="evenodd" d="M16,32 C7.163444,32 0,24.836556 0,16 C0,7.163444 7.163444,0 16,0 C24.836556,0 32,7.163444 32,16 C32,24.836556 24.836556,32 16,32 Z M15.4235663,6.17319727 L15.4235663,6.17289728 C14.8136701,6.40769346 14.7119708,7.29107909 15.2096676,7.69767247 C16.0123626,8.40476096 16.751358,9.18204832 17.5237531,9.92203628 C17.8180513,10.2136315 18.2869483,10.371429 18.6708459,10.1620324 C19.1701428,9.939036 19.3188419,9.20614792 18.9516442,8.80565444 C18.3115652,8.12925268 17.6353119,7.4880235 16.9258569,6.8847857 C16.5282594,6.48729216 16.0684623,5.89260184 15.4235663,6.17319727 Z M22.4582222,8.2244639 L22.4583222,8.2244639 C21.4993282,9.03315074 20.7254331,10.0330345 19.8483386,10.92512 C19.458341,11.3181136 19.5979401,12.0949009 20.1153369,12.3088974 C20.4734346,12.4742947 20.9195318,12.3923961 21.1729303,12.0858011 C21.8676259,11.3605129 22.5629215,10.6353247 23.2776171,9.92983615 C23.603915,9.62174116 23.9013132,9.16364862 23.7162143,8.70085615 C23.5947151,8.18046461 22.8953195,7.98926772 22.4582222,8.2244639 Z M8.49010976,8.36866155 L8.49050975,8.36866155 C8.0842123,8.65395691 7.97761297,9.32754595 8.33421073,9.69473997 C8.96400679,10.3399295 9.6001028,10.9799191 10.2942984,11.5549097 C10.690396,11.8750045 11.004494,12.460795 11.5962903,12.3696964 C12.3033859,12.3665965 12.6568836,11.3743126 12.1500868,10.9055203 C11.3841916,10.1529325 10.6027965,9.41394454 9.84520126,8.64935698 C9.50830337,8.27606306 8.9454069,8.09406602 8.49010976,8.36866155 Z M9.07780607,12.888588 L9.07870607,12.888488 C8.01341274,13.6106763 7.27601737,14.735058 6.34732319,15.6241435 C5.83292641,16.1010357 6.18802419,17.0837197 6.89511975,17.1110193 C7.49911597,17.1838181 7.83741385,16.6103274 8.20011157,16.2371335 C8.81420773,15.5436448 9.54710313,14.9534544 10.1100996,14.2190664 C10.5860966,13.5561771 9.84100129,12.5941928 9.07780607,12.888588 Z M24.5538091,15.0156534 L24.5537091,15.0159534 C23.8815133,15.5986439 23.3277168,16.3162322 22.6722209,16.9247223 C22.2761233,17.3525154 21.6479273,17.7682086 21.7587266,18.4373977 C21.8437261,19.0850872 22.7284205,19.3991821 23.2018175,18.9516893 C23.8500135,18.3341994 24.4780095,17.6923098 25.050006,17.003521 C25.3748039,16.6044275 25.9650002,16.2903327 25.8877007,15.6956423 C25.8709008,15.0626526 25.0788058,14.672759 24.5538091,15.0156534 Z M11.0685936,19.7206768 L11.0685936,19.7211768 C10.3141983,20.3797661 9.67720232,21.1639534 8.94420691,21.8497422 C8.56640928,22.2165362 8.07011239,22.6884285 8.27201112,23.272519 C8.39041038,23.8778092 9.27960481,24.0812059 9.69690219,23.6594127 C10.3386982,23.0342229 10.9744942,22.4012332 11.5450906,21.7112444 C11.8682886,21.3122509 12.4585849,20.9950561 12.3644855,20.3972658 C12.3523855,19.7782759 11.5785904,19.4156818 11.0685936,19.7206768 Z M20.1306368,19.6978772 L20.1305368,19.6977772 C19.5447405,19.9177736 19.4295412,20.7993593 19.9195381,21.1801531 C20.729533,21.9373408 21.5038282,22.7355278 22.3095231,23.4955154 C22.7086206,23.8930089 23.5309155,23.8794092 23.770914,23.3180183 C23.9408129,23.0055234 23.9180131,22.5701305 23.6616147,22.3106347 C22.8315199,21.4154493 21.8923257,20.6356619 21.0091313,19.7965756 C20.7706328,19.5932789 20.412935,19.6008788 20.1306368,19.6978772 Z M13.3310794,21.8432423 L13.3309794,21.8428423 C12.8271826,22.0629387 12.6754835,22.8047267 13.0487812,23.2038202 C13.6679773,23.8520096 14.3087733,24.4816994 14.998769,25.0537901 C15.3961665,25.3753848 15.7044645,25.9627753 16.2961608,25.8927764 C17.0290562,25.8852765 17.380654,24.8822928 16.8606573,24.3877009 C16.0699622,23.6624127 15.308267,22.906825 14.5465718,22.1512373 C14.2445737,21.8311425 13.7510768,21.615646 13.3310794,21.8432423 Z M11.9800879,6.93628486 C11.9800879,6.45718563 11.5916973,6.06879897 11.1125933,6.06879897 C10.7616659,6.06875853 10.4452724,6.28012422 10.3109596,6.60432792 C10.1766468,6.92853162 10.2508682,7.30172002 10.4990113,7.54986071 C10.7471545,7.7980014 11.1203466,7.87222201 11.4445536,7.73791056 C11.7687605,7.6035991 11.9801283,7.28720879 11.9800879,6.93628486 Z M14.508872,9.24354732 C14.508872,9.01345843 14.4174618,8.79279484 14.2547534,8.63010681 C14.092045,8.46741877 13.8713687,8.37603491 13.6412775,8.37606143 C13.1621865,8.37611666 12.7738461,8.76452777 12.7738829,9.24361397 C12.7739197,9.72270018 13.1623198,10.1110516 13.6414108,10.1110332 C14.1205018,10.1110148 14.508872,9.72263352 14.508872,9.24354732 Z M7.73521449,11.3631128 C7.73518797,11.1330413 7.64376605,10.9124034 7.48106051,10.749737 C7.31835496,10.5870706 7.09769379,10.4957004 6.86761993,10.4957269 C6.51669248,10.4957269 6.20032338,10.7071291 6.06604795,11.0313483 C5.93177253,11.3555675 6.0060369,11.7287473 6.25420867,11.9768594 C6.50238045,12.2249715 6.87558114,12.2991491 7.1997726,12.1648002 C7.52396405,12.0304514 7.73529538,11.7140367 7.73521449,11.3631128 Z M21.5071282,6.86748598 L21.5075282,6.86748598 C21.5075547,6.63740629 21.4161667,6.41674244 21.2534742,6.25405153 C21.0907816,6.09136062 20.8701156,5.99997357 20.6400336,6.00000009 C20.2891284,5.99983829 19.9726857,6.21109183 19.838288,6.53523625 C19.7038903,6.85938067 19.7780107,7.2325674 20.0260809,7.48074957 C20.2741511,7.72893174 20.6473073,7.80322349 20.9715169,7.66897663 C21.2957266,7.53472977 21.5071281,7.21838766 21.5071282,6.86748598 Z M26,11.1455164 C26,10.6664171 25.6116095,10.2780305 25.1325054,10.2780305 C24.6534014,10.2780305 24.2650109,10.6664171 24.2650109,11.1455164 C24.2650109,11.6246156 24.6534014,12.0130023 25.1325054,12.0130023 C25.6116095,12.0130023 26,11.6246156 26,11.1455164 Z M23.6290149,13.6380758 C23.6289883,13.4080042 23.5375664,13.1873664 23.3748609,13.0246999 C23.2121553,12.8620335 22.9914942,12.7706634 22.7614203,12.7706899 C22.2823163,12.7707452 21.8939705,13.1591766 21.8940257,13.6382758 C21.894081,14.117375 22.2825163,14.5057169 22.7616203,14.5056617 C23.2407243,14.5056065 23.6290701,14.117175 23.6290149,13.6380758 Z M25.996,20.6440618 C25.996,20.4139729 25.9045898,20.1933093 25.7418814,20.0306213 C25.579173,19.8679333 25.3584967,19.7765494 25.1284055,19.7765759 C24.6493145,19.7766312 24.2609741,20.1650423 24.2610109,20.6441285 C24.2610477,21.1232147 24.6494478,21.5115661 25.1285388,21.5115477 C25.6076298,21.5115293 25.996,21.123148 25.996,20.6440618 Z M19.2300424,22.7597274 C19.2300424,22.5296385 19.1386322,22.3089749 18.9759238,22.1462869 C18.8132154,21.9835988 18.5925391,21.892215 18.3624479,21.8922415 C18.0115295,21.8922415 17.6951667,22.1036328 17.5608855,22.4278397 C17.4266042,22.7520466 17.5008502,23.1252186 17.7490012,23.3733386 C17.9971523,23.6214586 18.3703366,23.6956608 18.6945312,23.5613435 C19.0187259,23.4270262 19.2300829,23.1106422 19.2300424,22.7597274 Z M21.7260268,25.1321888 C21.7260003,24.9021172 21.6345783,24.6814793 21.4718728,24.5188129 C21.3091673,24.3561465 21.0885061,24.2647764 20.8584322,24.2648029 C20.5075048,24.2648029 20.1911357,24.4762051 20.0568603,24.8004242 C19.9225848,25.1246434 19.9968492,25.4978233 20.245021,25.7459354 C20.4931928,25.9940474 20.8663934,26.068225 21.1905849,25.9338762 C21.5147764,25.7995274 21.7261077,25.4831127 21.7260268,25.1321888 Z M12.2252863,25.1321888 C12.2252863,24.6530896 11.8368958,24.2647029 11.3577918,24.2647029 C11.0068643,24.2646625 10.6904709,24.4760281 10.5561581,24.8002318 C10.4218453,25.1244355 10.4960666,25.4976239 10.7442098,25.7457646 C10.992353,25.9939053 11.3655451,26.0681259 11.689752,25.9338145 C12.013959,25.799503 12.2253268,25.4831127 12.2252863,25.1321888 Z M10.1093996,18.3378993 C10.1093996,17.8588001 9.72100906,17.4704135 9.24190504,17.4704135 C8.8909776,17.470373 8.57458413,17.6817387 8.44027133,18.0059424 C8.30595852,18.3301461 8.38017988,18.7033345 8.62832305,18.9514752 C8.87646623,19.1996159 9.24965836,19.2738365 9.57386531,19.139525 C9.89807225,19.0052136 10.1094401,18.6888233 10.1093996,18.3378993 Z M7.73521449,20.8590583 C7.73521449,20.6289694 7.64380428,20.4083058 7.48109586,20.2456178 C7.31838744,20.0829298 7.09771112,19.9915459 6.86761993,19.9915724 C6.51670158,19.9915724 6.2003388,20.2029638 6.06605751,20.5271707 C5.93177621,20.8513776 6.00602225,21.2245496 6.25417329,21.4726695 C6.50232433,21.7207895 6.87550862,21.7949918 7.19970329,21.6606744 C7.52389795,21.5263571 7.73525494,21.2099731 7.73521449,20.8590583 Z"/>
</svg>

<svg xmlns="http://www.w3.org/2000/svg" width="32" height="32"><path fill-rule="evenodd" d="M16 32C7.163 32 0 24.837 0 16S7.163 0 16 0s16 7.163 16 16-7.163 16-16 16zm-.576-25.827c-.61.235-.712 1.118-.214 1.525.802.707 1.541 1.484 2.314 2.224.294.292.763.45 1.147.24.5-.223.648-.956.28-1.356a25.784 25.784 0 0 0-2.025-1.921c-.398-.398-.858-.992-1.502-.712zm7.034 2.051c-.959.81-1.733 1.809-2.61 2.701-.39.393-.25 1.17.267 1.384.358.165.805.083 1.058-.223.695-.725 1.39-1.45 2.105-2.156.326-.308.623-.766.438-1.23-.121-.52-.82-.71-1.258-.476zM8.49 8.37c-.406.285-.512.959-.156 1.326.63.645 1.266 1.285 1.96 1.86.396.32.71.906 1.302.815.707-.003 1.06-.996.554-1.464-.766-.753-1.547-1.492-2.305-2.257-.337-.373-.9-.555-1.355-.28zm.588 4.52c-1.065.722-1.802 1.846-2.73 2.735-.515.477-.16 1.46.547 1.487.604.073.942-.5 1.305-.874.614-.693 1.347-1.284 1.91-2.018.476-.663-.269-1.625-1.032-1.33zm15.476 2.127c-.672.583-1.226 1.3-1.882 1.909-.396.428-1.024.843-.913 1.512.085.648.97.962 1.443.515a23.054 23.054 0 0 0 1.848-1.948c.325-.4.915-.714.838-1.308-.017-.633-.81-1.023-1.334-.68zM11.069 19.72c-.755.659-1.392 1.443-2.125 2.129-.378.367-.874.838-.672 1.423.118.605 1.008.808 1.425.386.642-.625 1.277-1.258 1.848-1.948.323-.399.914-.716.82-1.314-.013-.619-.786-.981-1.296-.676zm9.062-.023c-.586.22-.701 1.101-.211 1.482.81.757 1.584 1.556 2.39 2.316.399.397 1.22.383 1.46-.178.17-.312.148-.748-.108-1.007-.83-.896-1.77-1.675-2.653-2.514-.238-.204-.596-.196-.878-.1zm-6.8 2.145c-.504.22-.656.962-.282 1.36a23.19 23.19 0 0 0 1.95 1.85c.397.322.705.91 1.297.84.733-.008 1.085-1.01.565-1.505a82.32 82.32 0 0 1-2.314-2.237c-.302-.32-.796-.535-1.216-.308zm-1.35-14.907a.867.867 0 1 0-1.736 0 .867.867 0 0 0 1.735 0zm2.528 2.308a.867.867 0 1 0-1.735 0 .867.867 0 0 0 1.735 0zm-6.774 2.12a.867.867 0 1 0-1.735 0 .867.867 0 0 0 1.735 0zm13.772-4.497a.867.867 0 1 0-1.733 0 .867.867 0 0 0 1.733 0zM26 11.146a.867.867 0 1 0-1.735 0 .867.867 0 0 0 1.735 0zm-2.371 2.492a.867.867 0 1 0-1.735 0 .867.867 0 0 0 1.735 0zm2.367 7.006a.867.867 0 1 0-1.735 0 .867.867 0 0 0 1.735 0zM19.23 22.76a.867.867 0 1 0-1.735 0 .867.867 0 0 0 1.735 0zm2.496 2.372a.867.867 0 1 0-1.735 0 .867.867 0 0 0 1.735 0zm-9.5 0a.867.867 0 1 0-1.736 0 .867.867 0 0 0 1.735 0zm-2.117-6.794a.867.867 0 1 0-1.735 0 .867.867 0 0 0 1.735 0zm-2.374 2.521a.867.867 0 1 0-1.735 0 .867.867 0 0 0 1.735 0z"/></svg>
